!!!SOCIAL_FUNCTION:	songs connected with ceremonies
!!!PDT:	1929
!!!OTL: No_111_Song_After_Drinking_the_Wine.krn
!!!REG: Southwest
!!!LANG: Non-Tone
!!!LING_GROUP: Uto-Aztecan
**kern
*staff1
=1-
*clefF4
*k[b-e-a-d-]
*M2/4
4E-\
4E-\
=2||
*M3/4
4.c\
8A-\
4A-\
=3||
*M2/4
4B-\
4A-\
=4
4.A-\
8E-\
=5||
*M3/4
4E-\
4E-\
4E-\
=6||
*M2/4
2E-\
=7||
*M3/4
4D-\
8E-\L
8E-\J
4E-\
=8||
*M2/4
2D-\
=9||
*M3/4
4BB-/
8D-\L
8D-\J
4D-\
=10
2.D-\
=11||
*M2/4
4A-\
4A-\
=12||
*M3/4
4.B-\
8A-\
4A-\
=13||
*M2/4
4A-\
4E-\
=14
4A-\
4A-\
=15||
*M3/4
4.B-\
8A-\
4A-\
=16||
*M2/4
4B-\
4B-\
=17||
*M3/4
4A-\
(4A-\
4G\)
=18||
*M2/4
(8.A-\L
16E-\Jk)
4E-\
=19
4E-\
(8.E-\L
16D-\Jk)
=20||
*M3/4
2D-\
8BB-/
8r
=21||
*M2/4
4E-\
4E-\
=22
2E-\
=23
4A-\
4A-\
=24
4.E-\
8D-\
=25||
*M3/4
4E-\
8E-\L
8D-\J
4BB-/
=26||
*M2/4
[2E-\
=27
2E-\]
=28
8D-/L
8BB-/J
4BB-/
=29
[2E-\
=30
2E-\]
=31
2E-\
=32
2E-\
==
*-
